;FLAVOR:Marlin
;TIME:51649
;Filament used: 40.9747m
;Layer height: 0.28
;MINX:2.375
;MINY:2.375
;MINZ:0.28
;MAXX:217.625
;MAXY:217.625
;MAXZ:8.12
;Generated with Cura_SteamEngine main
M82 ;absolute extrusion mode
; Ender 3 Custom Start G-code
G92 E0 ; Reset Extruder
G28 ; Home all axes
M104 S175 ; Start heating up the nozzle most of the way
M190 S60 ; Start heating the bed, wait until target temperature reached
M109 S220 ; Finish heating the nozzle
G1 Z2.0 F3000 ; Move Z Axis up little to prevent scratching of Heat Bed
G1 X0.1 Y20 Z0.3 F5000.0 ; Move to start position
G1 X0.1 Y200.0 Z0.3 F1500.0 E15 ; Draw the first line
G1 X0.4 Y200.0 Z0.3 F5000.0 ; Move to side a little
G1 X0.4 Y20 Z0.3 F1500.0 E30 ; Draw the second line
G92 E0 ; Reset Extruder
G1 Z2.0 F3000 ; Move Z Axis up little to prevent scratching of Heat Bed
G1 X5 Y20 Z0.3 F5000.0 ; Move over to prevent blob squish
G92 E0
G92 E0
G1 F1500 E-6.5
;LAYER_COUNT:29
;LAYER:0
M107
G0 F6000 X4.798 Y4.524 Z0.28
G0 X2.375 Y10.175
;TYPE:SKIRT
G1 F1500 E0
G1 F1200 X2.415 Y9.386 E0.03679
G1 X2.534 Y8.606 E0.07353
G1 X2.732 Y7.841 E0.11032
G1 X3.006 Y7.101 E0.14707
G1 X3.354 Y6.392 E0.18384
G1 X3.772 Y5.721 E0.22065
G1 X4.255 Y5.097 E0.2574
G1 X4.798 Y4.524 E0.29416
G1 X5.397 Y4.009 E0.33094
G1 X6.045 Y3.558 E0.3677
G1 X6.736 Y3.174 E0.40451
G1 X7.461 Y2.862 E0.44126
G1 X8.214 Y2.625 E0.47802
G1 X8.988 Y2.466 E0.51482
G1 X9.773 Y2.385 E0.55156
G1 X10.175 Y2.375 E0.57029
G1 X209.825 Y2.375 E9.86683
G1 X210.614 Y2.415 E9.90361
G1 X211.394 Y2.534 E9.94035
G1 X212.159 Y2.732 E9.97715
G1 X212.899 Y3.006 E10.01389
G1 X213.608 Y3.354 E10.05067
G1 X214.279 Y3.772 E10.08748
G1 X214.903 Y4.255 E10.12422
G1 X215.476 Y4.798 E10.16098
G1 X215.991 Y5.397 E10.19777
G1 X216.442 Y6.045 E10.23453
G1 X216.826 Y6.736 E10.27134
G1 X217.138 Y7.461 E10.30809
G1 X217.375 Y8.214 E10.34485
G1 X217.534 Y8.988 E10.38164
G1 X217.615 Y9.773 E10.41839
G1 X217.625 Y10.175 E10.43711
G1 X217.625 Y209.825 E19.73366
G1 X217.585 Y210.614 E19.77044
G1 X217.466 Y211.394 E19.80718
G1 X217.268 Y212.159 E19.84398
G1 X216.994 Y212.899 E19.88072
G1 X216.646 Y213.608 E19.9175
G1 X216.228 Y214.279 E19.95431
G1 X215.745 Y214.903 E19.99105
G1 X215.202 Y215.476 E20.02781
G1 X214.603 Y215.991 E20.06459
G1 X213.955 Y216.442 E20.10136
G1 X213.264 Y216.826 E20.13817
G1 X212.539 Y217.138 E20.17492
G1 X211.786 Y217.375 E20.21168
G1 X211.012 Y217.534 E20.24847
G1 X210.227 Y217.615 E20.28522
G1 X209.825 Y217.625 E20.30394
G1 X10.175 Y217.625 E29.60048
G1 X9.386 Y217.585 E29.63727
G1 X8.606 Y217.466 E29.67401
G1 X7.841 Y217.268 E29.7108
G1 X7.101 Y216.994 E29.74755
G1 X6.392 Y216.646 E29.78432
G1 X5.721 Y216.228 E29.82114
G1 X5.097 Y215.745 E29.85788
G1 X4.524 Y215.202 E29.89464
G1 X4.009 Y214.603 E29.93142
G1 X3.558 Y213.955 E29.96818
G1 X3.174 Y213.264 E30.00499
G1 X2.862 Y212.539 E30.04175
G1 X2.625 Y211.786 E30.07851
G1 X2.466 Y211.012 E30.1153
G1 X2.385 Y210.227 E30.15205
G1 X2.375 Y209.825 E30.17077
G1 X2.375 Y10.175 E39.46731
G0 F6000 X2.775 Y10.175
G1 F1200 X2.815 Y9.407 E39.50312
G1 X2.934 Y8.647 E39.53894
G1 X3.132 Y7.904 E39.57474
G1 X3.406 Y7.185 E39.61057
G1 X3.753 Y6.499 E39.64637
G1 X4.169 Y5.852 E39.68219
G1 X4.65 Y5.252 E39.71799
G1 X5.191 Y4.705 E39.75382
G1 X5.786 Y4.217 E39.78965
G1 X6.428 Y3.794 E39.82545
G1 X7.111 Y3.439 E39.86129
G1 X7.826 Y3.158 E39.89707
G1 X8.568 Y2.952 E39.93292
G1 X9.326 Y2.824 E39.96872
G1 X10.175 Y2.775 E40.00832
G1 X209.825 Y2.775 E49.30486
G1 X210.593 Y2.815 E49.34067
G1 X211.353 Y2.934 E49.37649
G1 X212.096 Y3.132 E49.41229
G1 X212.815 Y3.406 E49.44812
G1 X213.501 Y3.753 E49.48392
G1 X214.148 Y4.169 E49.51973
G1 X214.748 Y4.65 E49.55554
G1 X215.295 Y5.191 E49.59137
G1 X215.783 Y5.786 E49.6272
G1 X216.206 Y6.428 E49.663
G1 X216.561 Y7.111 E49.69884
G1 X216.842 Y7.826 E49.73461
G1 X217.048 Y8.568 E49.77047
G1 X217.176 Y9.326 E49.80627
G1 X217.225 Y10.175 E49.84587
G1 X217.225 Y209.825 E59.14241
G1 X217.185 Y210.593 E59.17822
G1 X217.066 Y211.353 E59.21404
G1 X216.868 Y212.096 E59.24984
G1 X216.594 Y212.815 E59.28567
G1 X216.247 Y213.501 E59.32147
G1 X215.831 Y214.148 E59.35728
G1 X215.35 Y214.748 E59.39309
G1 X214.809 Y215.295 E59.42891
G1 X214.214 Y215.783 E59.46475
G1 X213.572 Y216.206 E59.50055
G1 X212.889 Y216.561 E59.53639
G1 X212.174 Y216.842 E59.57216
G1 X211.432 Y217.048 E59.60802
G1 X210.674 Y217.176 E59.64381
G1 X209.825 Y217.225 E59.68341
G1 X10.175 Y217.225 E68.97995
G1 X9.407 Y217.185 E69.01576
G1 X8.647 Y217.066 E69.05158
G1 X7.904 Y216.868 E69.08739
G1 X7.185 Y216.594 E69.12322
G1 X6.499 Y216.247 E69.15901
G1 X5.852 Y215.831 E69.19483
G1 X5.252 Y215.35 E69.23064
G1 X4.705 Y214.809 E69.26646
G1 X4.217 Y214.214 E69.30229
G1 X3.794 Y213.572 E69.33809
G1 X3.439 Y212.889 E69.37394
G1 X3.158 Y212.174 E69.40971
G1 X2.952 Y211.432 E69.44557
G1 X2.824 Y210.674 E69.48136
G1 X2.775 Y209.825 E69.52096
G1 X2.775 Y10.175 E78.8175
G0 F6000 X3.175 Y10.175
G1 F1200 X3.215 Y9.428 E78.85233
G1 X3.334 Y8.69 E78.88714
G1 X3.532 Y7.968 E78.922
G1 X3.805 Y7.272 E78.95682
G1 X4.152 Y6.609 E78.99166
G1 X4.567 Y5.986 E79.02652
G1 X5.046 Y5.412 E79.06133
G1 X5.583 Y4.891 E79.09617
G1 X6.173 Y4.432 E79.13098
G1 X6.809 Y4.037 E79.16584
G1 X7.483 Y3.713 E79.20066
G1 X8.188 Y3.463 E79.23549
G1 X8.916 Y3.289 E79.27034
G1 X9.658 Y3.194 E79.30518
G1 X10.175 Y3.175 E79.32927
G1 X209.825 Y3.175 E88.62581
G1 X210.572 Y3.215 E88.66064
G1 X211.31 Y3.334 E88.69545
G1 X212.032 Y3.532 E88.73031
G1 X212.728 Y3.805 E88.76512
G1 X213.391 Y4.152 E88.79997
G1 X214.014 Y4.567 E88.83482
G1 X214.588 Y5.046 E88.86963
G1 X215.109 Y5.583 E88.90447
G1 X215.568 Y6.173 E88.93928
G1 X215.963 Y6.809 E88.97414
G1 X216.287 Y7.483 E89.00896
G1 X216.537 Y8.188 E89.0438
G1 X216.711 Y8.916 E89.07865
G1 X216.806 Y9.658 E89.11348
G1 X216.825 Y10.175 E89.13757
G1 X216.825 Y209.825 E98.43411
G1 X216.785 Y210.572 E98.46895
G1 X216.666 Y211.31 E98.50375
G1 X216.468 Y212.032 E98.53861
G1 X216.195 Y212.728 E98.57343
G1 X215.848 Y213.391 E98.60827
G1 X215.433 Y214.014 E98.64313
G1 X214.954 Y214.588 E98.67794
G1 X214.417 Y215.109 E98.71278
G1 X213.827 Y215.568 E98.74759
G1 X213.191 Y215.963 E98.78245
G1 X212.517 Y216.287 E98.81727
G1 X211.812 Y216.537 E98.8521
G1 X211.084 Y216.711 E98.88695
G1 X210.342 Y216.806 E98.92179
G1 X209.825 Y216.825 E98.94588
G1 X10.175 Y216.825 E108.24242
G1 X9.428 Y216.785 E108.27725
G1 X8.69 Y216.666 E108.31206
G1 X7.968 Y216.468 E108.34692
G1 X7.272 Y216.195 E108.38173
G1 X6.609 Y215.848 E108.41658
G1 X5.986 Y215.433 E108.45143
G1 X5.412 Y214.954 E108.48625
G1 X4.891 Y214.417 E108.52108
G1 X4.432 Y213.827 E108.55589
G1 X4.037 Y213.191 E108.59075
G1 X3.713 Y212.517 E108.62558
G1 X3.463 Y211.812 E108.66041
G1 X3.289 Y211.084 E108.69526
G1 X3.194 Y210.342 E108.73009
G1 X3.175 Y209.825 E108.75418
G1 X3.175 Y10.175 E118.05072
G0 F6000 X3.575 Y10.175
G1 F1200 X3.615 Y9.45 E118.08453
G1 X3.734 Y8.733 E118.11838
G1 X3.932 Y8.034 E118.15221
G1 X4.205 Y7.361 E118.18602
G1 X4.55 Y6.722 E118.21984
G1 X4.964 Y6.125 E118.25367
G1 X5.44 Y5.577 E118.28747
G1 X5.974 Y5.084 E118.32131
G1 X6.559 Y4.654 E118.35512
G1 X7.188 Y4.29 E118.38895
G1 X7.853 Y3.997 E118.42279
G1 X8.546 Y3.779 E118.45662
G1 X9.258 Y3.639 E118.49041
G1 X10.175 Y3.575 E118.53321
G1 X209.825 Y3.575 E127.82975
G1 X210.55 Y3.615 E127.86356
G1 X211.267 Y3.734 E127.89741
G1 X211.966 Y3.932 E127.93124
G1 X212.639 Y4.205 E127.96505
G1 X213.278 Y4.55 E127.99887
G1 X213.875 Y4.964 E128.0327
G1 X214.423 Y5.44 E128.0665
G1 X214.916 Y5.974 E128.10034
G1 X215.346 Y6.559 E128.13414
G1 X215.71 Y7.188 E128.16798
G1 X216.003 Y7.853 E128.20182
G1 X216.221 Y8.546 E128.23565
G1 X216.361 Y9.258 E128.26944
G1 X216.425 Y10.175 E128.31224
G1 X216.425 Y209.825 E137.60878
G1 X216.385 Y210.55 E137.64259
G1 X216.266 Y211.267 E137.67644
G1 X216.068 Y211.966 E137.71026
G1 X215.795 Y212.639 E137.74408
G1 X215.45 Y213.278 E137.7779
G1 X215.036 Y213.875 E137.81173
G1 X214.56 Y214.423 E137.84552
G1 X214.026 Y214.916 E137.87937
G1 X213.441 Y215.346 E137.91317
G1 X212.812 Y215.71 E137.94701
G1 X212.147 Y216.003 E137.98085
G1 X211.454 Y216.221 E138.01468
G1 X210.742 Y216.361 E138.04847
G1 X209.825 Y216.425 E138.09127
G1 X10.175 Y216.425 E147.38781
G1 X9.45 Y216.385 E147.42162
G1 X8.733 Y216.266 E147.45546
G1 X8.034 Y216.068 E147.48929
G1 X7.361 Y215.795 E147.52311
G1 X6.722 Y215.45 E147.55693
G1 X6.125 Y215.036 E147.59075
G1 X5.577 Y214.56 E147.62455
G1 X5.084 Y214.026 E147.6584
G1 X4.654 Y213.441 E147.6922
G1 X4.29 Y212.812 E147.72604
G1 X3.997 Y212.147 E147.75988
G1 X3.779 Y211.454 E147.79371
G1 X3.639 Y210.742 E147.8275
G1 X3.575 Y209.825 E147.8703
G1 X3.575 Y10.175 E157.16684
G0 F6000 X3.975 Y10.175
G1 F1200 X4.015 Y9.472 E157.19963
G1 X4.134 Y8.778 E157.23241
G1 X4.332 Y8.103 E157.26517
G1 X4.604 Y7.454 E157.29794
G1 X4.949 Y6.84 E157.33073
G1 X5.36 Y6.269 E157.36349
G1 X5.834 Y5.748 E157.39629
G1 X6.364 Y5.284 E157.42909
G1 X6.943 Y4.884 E157.46186
G1 X7.564 Y4.552 E157.49465
G1 X8.218 Y4.292 E157.52742
G1 X8.898 Y4.108 E157.56022
G1 X9.594 Y4.002 E157.593
G1 X10.175 Y3.975 E157.62009
G1 X209.825 Y3.975 E166.91663
G1 X210.528 Y4.015 E166.94941
G1 X211.222 Y4.134 E166.9822
G1 X211.897 Y4.332 E167.01496
G1 X212.546 Y4.604 E167.04772
G1 X213.16 Y4.949 E167.08052
G1 X213.731 Y5.36 E167.11328
G1 X214.252 Y5.834 E167.14608
G1 X214.716 Y6.364 E167.17888
G1 X215.116 Y6.943 E167.21164
G1 X215.448 Y7.564 E167.24443
G1 X215.708 Y8.218 E167.27721
G1 X215.892 Y8.898 E167.31001
G1 X215.998 Y9.594 E167.34279
G1 X216.025 Y10.175 E167.36987
G1 X216.025 Y209.825 E176.66641
G1 X215.985 Y210.528 E176.6992
G1 X215.866 Y211.222 E176.73199
G1 X215.668 Y211.897 E176.76474
G1 X215.396 Y212.546 E176.79751
G1 X215.051 Y213.16 E176.8303
G1 X214.64 Y213.731 E176.86306
G1 X214.166 Y214.252 E176.89586
G1 X213.636 Y214.716 E176.92866
G1 X213.057 Y215.116 E176.96143
G1 X212.436 Y215.448 E176.99422
G1 X211.782 Y215.708 E177.02699
G1 X211.102 Y215.892 E177.05979
G1 X210.406 Y215.998 E177.09258
G1 X209.825 Y216.025 E177.11966
G1 X10.175 Y216.025 E186.4162
G1 X9.472 Y215.985 E186.44899
G1 X8.778 Y215.866 E186.48177
G1 X8.103 Y215.668 E186.51453
G1 X7.454 Y215.396 E186.5473
G1 X6.84 Y215.051 E186.58009
G1 X6.269 Y214.64 E186.61285
G1 X5.748 Y214.166 E186.64565
G1 X5.284 Y213.636 E186.67845
G1 X4.884 Y213.057 E186.71122
G1 X4.552 Y212.436 E186.74401
G1 X4.292 Y211.782 E186.77678
G1 X4.108 Y211.102 E186.80958
G1 X4.002 Y210.406 E186.84236
G1 X3.975 Y209.825 E186.86945
G1 X3.975 Y10.175 E196.16599
G0 F6000 X4.375 Y10.175
G1 F1200 X4.415 Y9.495 E196.19771
G1 X4.534 Y8.825 E196.22939
G1 X4.731 Y8.173 E196.26111
G1 X5.003 Y7.549 E196.2928
G1 X5.347 Y6.961 E196.32452
G1 X5.757 Y6.417 E196.35624
G1 X6.228 Y5.926 E196.38793
G1 X6.753 Y5.492 E196.41964
G1 X7.325 Y5.123 E196.45134
G1 X7.937 Y4.824 E196.48306
G1 X8.579 Y4.599 E196.51473
G1 X9.244 Y4.45 E196.54647
G1 X10.175 Y4.375 E196.58996
G1 X209.825 Y4.375 E205.8865
G1 X210.505 Y4.415 E205.91822
G1 X211.175 Y4.534 E205.9499
G1 X211.827 Y4.731 E205.98162
G1 X212.451 Y5.003 E206.01331
G1 X213.039 Y5.347 E206.04504
G1 X213.583 Y5.757 E206.07675
G1 X214.074 Y6.228 E206.10844
G1 X214.508 Y6.753 E206.14015
G1 X214.877 Y7.325 E206.17185
G1 X215.176 Y7.937 E206.20357
G1 X215.401 Y8.579 E206.23524
G1 X215.55 Y9.244 E206.26698
G1 X215.625 Y10.175 E206.31047
G1 X215.625 Y209.825 E215.60701
G1 X215.585 Y210.505 E215.63873
G1 X215.466 Y211.175 E215.67041
G1 X215.269 Y211.827 E215.70213
G1 X214.997 Y212.451 E215.73383
G1 X214.653 Y213.039 E215.76555
G1 X214.243 Y213.583 E215.79727
G1 X213.772 Y214.074 E215.82895
G1 X213.247 Y214.508 E215.86067
G1 X212.675 Y214.877 E215.89236
G1 X212.063 Y215.176 E215.92408
G1 X211.421 Y215.401 E215.95575
G1 X210.756 Y215.55 E215.98749
G1 X209.825 Y215.625 E216.03098
G1 X10.175 Y215.625 E225.32752
G1 X9.495 Y215.585 E225.35924
G1 X8.825 Y215.466 E225.39092
G1 X8.173 Y215.269 E225.42264
G1 X7.549 Y214.997 E225.45434
G1 X6.961 Y214.653 E225.48606
G1 X6.417 Y214.243 E225.51778
G1 X5.926 Y213.772 E225.54946
G1 X5.492 Y213.247 E225.58118
G1 X5.123 Y212.675 E225.61287
G1 X4.824 Y212.063 E225.64459
G1 X4.599 Y211.421 E225.67627
G1 X4.45 Y210.756 E225.708
G1 X4.375 Y209.825 E225.75149
G1 X4.375 Y10.175 E235.04803
G0 F6000 X4.775 Y10.175
G1 F1200 X4.815 Y9.519 E235.07863
G1 X4.934 Y8.873 E235.10922
G1 X5.131 Y8.246 E235.13982
G1 X5.403 Y7.648 E235.17041
G1 X5.745 Y7.087 E235.20101
G1 X6.153 Y6.572 E235.2316
G1 X6.62 Y6.11 E235.26219
G1 X7.14 Y5.709 E235.29277
G1 X7.704 Y5.373 E235.32334
G1 X8.306 Y5.109 E235.35394
G1 X8.935 Y4.919 E235.38454
G1 X9.582 Y4.808 E235.41511
G1 X10.175 Y4.775 E235.44276
G1 X209.825 Y4.775 E244.7393
G1 X210.481 Y4.815 E244.76991
G1 X211.127 Y4.934 E244.80049
G1 X211.754 Y5.131 E244.8311
G1 X212.352 Y5.403 E244.86169
G1 X212.913 Y5.745 E244.89228
G1 X213.428 Y6.153 E244.92287
G1 X213.89 Y6.62 E244.95346
G1 X214.291 Y7.14 E244.98404
G1 X214.627 Y7.704 E245.01461
G1 X214.891 Y8.306 E245.04522
G1 X215.081 Y8.935 E245.07581
G1 X215.192 Y9.582 E245.10638
G1 X215.225 Y10.175 E245.13404
G1 X215.225 Y209.825 E254.43058
G1 X215.185 Y210.481 E254.46118
G1 X215.066 Y211.127 E254.49177
G1 X214.869 Y211.754 E254.52237
G1 X214.597 Y212.352 E254.55296
G1 X214.255 Y212.913 E254.58355
G1 X213.847 Y213.428 E254.61415
G1 X213.38 Y213.89 E254.64474
G1 X212.86 Y214.291 E254.67531
G1 X212.296 Y214.627 E254.70588
G1 X211.694 Y214.891 E254.73649
G1 X211.065 Y215.081 E254.76709
G1 X210.418 Y215.192 E254.79765
G1 X209.825 Y215.225 E254.82531
G1 X10.175 Y215.225 E264.12185
G1 X9.519 Y215.185 E264.15245
G1 X8.873 Y215.066 E264.18304
G1 X8.246 Y214.869 E264.21364
G1 X7.648 Y214.597 E264.24423
G1 X7.087 Y214.255 E264.27483
G1 X6.572 Y213.847 E264.30542
G1 X6.11 Y213.38 E264.33601
G1 X5.709 Y212.86 E264.36659
G1 X5.373 Y212.296 E264.39716
G1 X5.109 Y211.694 E264.42776
G1 X4.919 Y211.065 E264.45836
G1 X4.808 Y210.418 E264.48893
G1 X4.775 Y209.825 E264.51658
G1 X4.775 Y10.175 E273.81312
G0 F6000 X5.175 Y10.175
G1 F1200 X5.215 Y9.544 E273.84256
G1 X5.334 Y8.923 E273.87201
G1 X5.531 Y8.323 E273.90141
G1 X5.802 Y7.751 E273.93088
G1 X6.142 Y7.219 E273.96028
G1 X6.548 Y6.734 E273.98974
G1 X7.011 Y6.304 E274.01916
G1 X7.525 Y5.935 E274.04862
G1 X8.081 Y5.635 E274.07804
G1 X8.67 Y5.407 E274.10745
G1 X9.284 Y5.255 E274.1369
G1 X10.175 Y5.175 E274.17856
G1 X209.825 Y5.175 E283.4751
G1 X210.456 Y5.215 E283.50454
G1 X211.077 Y5.334 E283.53398
G1 X211.677 Y5.531 E283.56339
G1 X212.249 Y5.802 E283.59286
G1 X212.781 Y6.142 E283.62226
G1 X213.266 Y6.548 E283.65171
G1 X213.696 Y7.011 E283.68113
G1 X214.065 Y7.525 E283.7106
G1 X214.365 Y8.081 E283.74002
G1 X214.593 Y8.67 E283.76942
G1 X214.745 Y9.284 E283.79888
G1 X214.825 Y10.175 E283.84053
G1 X214.825 Y209.825 E293.13707
G1 X214.785 Y210.456 E293.16652
G1 X214.666 Y211.077 E293.19596
G1 X214.469 Y211.677 E293.22536
G1 X214.198 Y212.249 E293.25484
G1 X213.858 Y212.781 E293.28424
G1 X213.452 Y213.266 E293.31369
G1 X212.989 Y213.696 E293.34311
G1 X212.475 Y214.065 E293.37257
G1 X211.919 Y214.365 E293.40199
G1 X211.33 Y214.593 E293.4314
G1 X210.716 Y214.745 E293.46085
G1 X209.825 Y214.825 E293.50251
G1 X10.175 Y214.825 E302.79905
G1 X9.544 Y214.785 E302.82849
G1 X8.923 Y214.666 E302.85793
G1 X8.323 Y214.469 E302.88734
G1 X7.751 Y214.198 E302.91681
G1 X7.219 Y213.858 E302.94621
G1 X6.734 Y213.452 E302.97566
G1 X6.304 Y212.989 E303.00509
G1 X5.935 Y212.475 E303.03455
G1 X5.635 Y211.919 E303.06397
G1 X5.407 Y211.33 E303.09338
G1 X5.255 Y210.716 E303.12283
G1 X5.175 Y209.825 E303.16449
G1 X5.175 Y10.175 E312.46103
G0 F6000 X5.575 Y10.175
G1 F1200 X5.615 Y9.57 E312.48926
G1 X5.734 Y8.976 E312.51747
G1 X5.93 Y8.402 E312.54571
G1 X6.201 Y7.859 E312.57397
G1 X6.54 Y7.356 E312.60221
G1 X6.942 Y6.903 E312.63042
G1 X7.4 Y6.506 E312.65864
G1 X7.907 Y6.173 E312.68688
G1 X8.453 Y5.909 E312.71512
G1 X9.029 Y5.72 E312.74335
G1 X9.625 Y5.608 E312.77159
G1 X10.175 Y5.575 E312.79725
G1 X209.825 Y5.575 E322.09379
G1 X210.43 Y5.615 E322.12202
G1 X211.024 Y5.734 E322.15023
G1 X211.598 Y5.93 E322.17847
G1 X212.141 Y6.201 E322.20673
G1 X212.644 Y6.54 E322.23497
G1 X213.097 Y6.942 E322.26318
G1 X213.494 Y7.4 E322.2914
G1 X213.827 Y7.907 E322.31964
